X: 18210
T: Humours Of Glynn, The
R: jig
M: 6/8
K: Dmajor
|:A|def A3|D3 AFA|def A3|DFA B2A|
df/g/d A3|D3 AFF|Gc/A/G Fc/A/F|EFA B2A:|
|:df/g/d fdB|cf/g/c ecA|df/g/d fdB|AFA B2A|
dg/f/d fdB|cf/g/c ecA|dcB AGF|EFA B2A|
df/g/d fdB|cf/g/c ecA|df/g/d fdB|AFA B2A
df/g/d cf/g/c|Bf/g/B Af/g/A|Gc/A/G Fc/A/F|EFA B2A||

